X: 1
T: Freylachs in D minor (1)
M: C
L: 1/8
K: Dm
A,DF "A"\
| "Dm"A2 AB A2 GF | "Gm"G2 G_A G2 zF | "Dm"FE EF "Cm"FD/F/ _E/D/C | "Dm"^GA2G A/=G/F F/E/D |
| "Dm"A2 A{c}B A2 GF | "Gm"G2 G_A G2 zF | "Dm"FE EF "Cm"FD/F/ _E/D/C | "Dm"D2 z3 :|
|: A,DF "B"\
| "Dm"A2 GF "Gm"G{A}G FE | "Dm"F2 ED F/E/D "C"C2 | "C7"zC DE FE GE | "F"F4 zA A/G/F F/E/D |
| "Dm"A2 GF "Gm"G{A}G FE | "Dm"F2 ED F/E/D "C"CF | "Dm"FE EF FD/F/ "Cm"_E/D/C | "Dm"D2 z3 :|
|: CDE "C"\
| "F"F2 "C7"G2 "F"A2 "C7"B2 | "F"c6 zc | "C7"cB Bc cA/c/ B/A/G | "F"A3 ^G A/=G/F F2 |
| "Fm"F_A GF GA2 A | "G"=B/c/d c/B/_A G2 zF | "Dm"FE EF "Cm"FD _E/D/C | "Dm"D2 z3 :|

%%sep 1 1 500
%%sep 1 1 500

